assets/svg/1f4be.svg

<svg xmlns="http://www.w3.org/2000/svg" viewBox="0 0 64 64" enable-background="new 0 0 64 64"><path fill="#3e4347" d="m61.29 9.292l-6.586-6.586c-.389-.388-1.157-.706-1.707-.706h-44v4h-4v-4h-2c-.55 0-1 .45-1 1v58c0 .549.45 1 1 1h58c.55 0 1-.451 1-1v-50c0-.55-.318-1.319-.707-1.708"/><path fill="#fff" d="m12 62v-28c0-1.099.9-2 2-2h36c1.1 0 2 .9 2 2v28h-40"/><path fill="#e8e8e8" d="m18 2v20c0 1.1.9 2 2 2h30c1.1 0 2-.9 2-2v-20h-34"/><path fill="#3e4347" d="m36 6h10v16h-10z"/><path fill="#fff" d="m59 56c0-.551-.45-1-1-1h-2c-.55 0-1 .449-1 1v2c0 .549.45 1 1 1h2c.55 0 1-.451 1-1v-2"/><g fill="#f15744"><path d="m12 54h40v8h-40z"/><path d="m17 35.999h30v2h-30z"/><path d="m17 42h30v2h-30z"/><path d="m17 48h30v2h-30z"/></g></svg>

<svg xmlns="http://www.w3.org/2000/svg" width="64" height="64" viewBox="0 0 64 64"><path fill="#3E4347" d="M61.293 9.292l-6.586-6.586C54.318 2.318 53.55 2 53 2H9v4H5V2H3c-.55 0-1 .45-1 1v58c0 .549.45 1 1 1h58c.55 0 1-.451 1-1V11c0-.55-.318-1.319-.707-1.708z"/><path fill="#FFF" d="M12 62V33.999c0-1.099.9-2 2-2h36c1.1 0 2 .9 2 2V62H12z"/><path fill="#E8E8E8" d="M18 2v20c0 1.1.9 2 2 2h30c1.1 0 2-.9 2-2V2H18z"/><path fill="#3E4347" d="M36 6h10v16H36z"/><path fill="#FFF" d="M59 56c0-.551-.45-1-1-1h-2c-.55 0-1 .449-1 1v2c0 .549.45 1 1 1h2c.55 0 1-.451 1-1v-2z"/><path fill="#F15744" d="M12 54h40v8H12zM17 35.999h30V38H17zM17 42h30v2H17zM17 48h30v2H17z"/></svg>
